build/communication/OdnoklassnikiRoundSolid.svg

<svg xmlns="http://www.w3.org/2000/svg" fill="none" viewBox="0 0 24 24" focusable="false"><path d="M0 0H24V24H0z"/><path fill="#74767B" fill-rule="evenodd" d="M12 3C7.02954 3 3 7.02942 3 12C3 16.9706 7.02954 21 12 21C16.9705 21 21 16.9706 21 12C21 7.02942 16.9705 3 12 3ZM15.0923 9.09735C15.0923 10.8046 13.7034 12.1932 11.9954 12.1932C10.2874 12.1932 8.89819 10.8046 8.89819 9.09735C8.89819 7.38934 10.2874 6 11.9954 6C13.7034 6 15.0923 7.38916 15.0923 9.09735ZM13.2776 9.09735C13.2776 8.39026 12.7024 7.81506 11.9954 7.81506C11.2888 7.81506 10.7131 8.39008 10.7134 9.09735C10.7134 9.80383 11.2886 10.379 11.9954 10.379C12.7021 10.379 13.2776 9.80383 13.2776 9.09735ZM15.0466 13.9748C14.4893 14.325 13.8899 14.5732 13.2483 14.7194L14.9792 16.4513C15.0645 16.5363 15.1301 16.6343 15.1763 16.7455C15.2224 16.8566 15.2456 16.9724 15.2456 17.0927C15.2456 17.2131 15.2224 17.3288 15.1763 17.4399C15.1301 17.5511 15.0645 17.6492 14.9792 17.7341C14.8943 17.8193 14.7961 17.8848 14.6851 17.9309C14.574 17.977 14.4583 18 14.3381 18C14.2178 18 14.1021 17.977 13.991 17.9309C13.8799 17.8848 13.782 17.8193 13.697 17.7341L11.9949 16.0328L10.2939 17.734C10.2515 17.7765 10.2057 17.8142 10.1567 17.8469C10.1076 17.8797 10.0553 17.9076 9.99976 17.9305C9.88867 17.9766 9.77295 17.9996 9.65259 17.9996C9.53223 17.9996 9.4165 17.9766 9.30542 17.9305C9.19434 17.8845 9.09619 17.819 9.01123 17.7339C8.92603 17.6489 8.8606 17.5508 8.81445 17.4397C8.76831 17.3286 8.74536 17.2128 8.74536 17.0926C8.74512 16.9723 8.76807 16.8566 8.81421 16.7454C8.86011 16.6342 8.92554 16.5361 9.0105 16.451L10.7419 14.7194C10.1003 14.5731 9.50098 14.3249 8.94385 13.9748C8.84204 13.9106 8.75635 13.8295 8.68701 13.7313C8.61743 13.6332 8.56934 13.5255 8.54272 13.4081C8.51611 13.2908 8.5127 13.1729 8.53296 13.0543C8.55322 12.9357 8.59546 12.8256 8.65967 12.7238C8.72363 12.6218 8.80469 12.536 8.90259 12.4664C9.00073 12.3967 9.10864 12.3485 9.22583 12.3217C9.34326 12.295 9.46118 12.2917 9.57983 12.312C9.69849 12.3322 9.80884 12.3744 9.91064 12.4385C11.1782 13.2357 12.8113 13.2362 14.0801 12.4385C14.1819 12.3744 14.2922 12.3322 14.4109 12.312C14.5295 12.2917 14.6475 12.295 14.7649 12.3218C14.8821 12.3485 14.99 12.3967 15.0881 12.4664C15.1863 12.536 15.2673 12.6218 15.3313 12.7238C15.3953 12.8256 15.4375 12.9358 15.4578 13.0544C15.478 13.173 15.4746 13.291 15.448 13.4083C15.4214 13.5256 15.373 13.6333 15.3037 13.7314C15.2341 13.8296 15.1484 13.9107 15.0466 13.9748Z"/></svg>

<svg xmlns="http://www.w3.org/2000/svg" fill="none" viewBox="0 0 24 24" focusable="false"><path fill="none" d="M0 0h24v24H0z"/><path fill="#74767B" fill-rule="evenodd" d="M12 3c-4.98 0-9 4.02-9 9 0 4.97 4.02 9 9 9a9 9 0 0 0 9-9c0-4.98-4.03-9-9-9m3.09 6.09c0 1.71-1.39 3.1-3.1 3.1s-3.1-1.39-3.1-3.1S10.28 6 11.99 6s3.1 1.38 3.1 3.09m-1.82 0c0-.7-.57-1.28-1.28-1.28s-1.28.58-1.28 1.28c0 .71.57 1.28 1.28 1.28s1.28-.57 1.28-1.28m1.77 4.88c-.56.35-1.16.6-1.8.74l1.73 1.74c.09.08.16.18.2.29.05.11.07.23.07.35s-.02.23-.07.34c-.04.12-.11.21-.2.3-.08.08-.18.15-.29.2-.11.04-.23.07-.35.07s-.23-.03-.34-.07a1 1 0 0 1-.3-.2l-1.7-1.7-1.7 1.7c-.04.04-.09.08-.14.11s-.1.06-.16.09a1.03 1.03 0 0 1-.69 0 1 1 0 0 1-.29-.2.9.9 0 0 1-.2-.3.8.8 0 0 1-.07-.34c0-.12.02-.24.07-.35s.11-.21.2-.29l1.73-1.74c-.64-.14-1.24-.39-1.8-.74a1 1 0 0 1-.26-.24.8.8 0 0 1-.14-.33.8.8 0 0 1-.01-.35q.03-.18.12-.33c.07-.1.15-.19.25-.26s.2-.12.32-.14c.12-.03.24-.03.35-.01.12.02.23.06.34.12 1.26.8 2.9.8 4.17 0a.93.93 0 0 1 .68-.11c.12.02.23.07.32.14.1.07.18.16.25.26q.09.15.12.33c.02.12.02.24-.01.35-.02.12-.07.23-.14.33-.07.09-.16.18-.26.24"/></svg>
